X:1
T:Gather the Grain
T:Gather the Grain
T:Charles Hutchinson Gabriel
T:Frances Jane (Fanny) Crosby, 1901
T:Public Domain Courtesy of the Cyber Hymnal™
T:Public Domain Courtesy of the Cyber Hymnal™
C:Charles Hutchinson Gabriel
Z:Public Domain
Z:Courtesy of the Cyber Hymnal™
%%score ( 1 2 ) ( 3 4 )
L:1/8
Q:1/4=150
M:3/4
K:Bb
V:1 treble 
V:2 treble 
V:3 bass 
V:4 bass 
V:1
 [DF]2 | [DF]2 [B,D]2 [CE]2 | [DF]2 [DB]2 [FA]2 | [EG]2 [DF]3 [^C=E] | [DF]4 [FB]2 | [FA]2 F2 F2 | %6
w: 1.~O|list to the|mu- sic that|floats on the|air, The|val- leys are|
w: 2.~O|why should we|tar- ry from|la- bor to-|day? The|reap- ers are|
w: 3.~We|ask of the|Mas- ter, our|strength to re-|new, Tho’|great is the|
w: 4.~The|har- vest is|pass- ing, to|greet us no|more, The|sum- mer is|
 [Ec]2 F2 F2 | [Ge]2 [Fd]2 [Ec]2 | [DB]4 [DF]2 | [DF]2 [B,D]2 [CE]2 | [DF]2 [DB]2 [FA]2 | %11
w: smil- ing, the|reap- ers are|there; The|sum- mer re-|wards us with|
w: call- ing, and|we must a-|way; The|sky is un-|cloud- ed and|
w: har- vest, the|toil- ers are|few; We|pray that to|o- thers His|
w: end- ing, and|soon will be|o’er; Our|mo- ments ne-|glect- ed, re-|
 [EG]2 [DF]3 [^C=E] | [DF]4 [FG]2 | [FA]2 [CF]2 [FA]2 | [Ac]2 [GB]2 [FA]2 | [=EG] [EB]3 [CE]2 | %16
w: plen- ty a-|gain; Then|thrust in the|sick- le and|ga- ther the|
w: soft is the|wind; The|bright sheaves are|wav- ing and|read- y to|
w: grace He may|give, To|work and be|faith- ful as|long as they|
w: turn not a-|gain— Now|thrust in the|sick- le and|ga- ther the|
 [CF]6 ||"^Refrain" [Fd]3 [Fd] [Fd]2 | [Fd]6 | [Gc]2 [GB]3 [EG] | [DF]6 | [DB]3 [DB] [DB]2 | %22
w: grain.||||||
w: bind.||||||
w: live.||||||
w: grain.||||||
 [=EB]2 [EA]2 [EB]2 | [Fc]2 [Fc]3 [Fd] | [Fc]6 [Fd]3 [Fd] [Fd]2 | [Fd]2 [Ec]2 [DB]2 | %26
w: ||||
w: ||||
w: ||||
w: ||||
 [DF]2 [EG]2 [F_A]2 | [EG]4 [EG]2 | [^CB]2 [CA]2 [CG]2 | [DF]2 [DB]2 [Fd]2 | [Ec]3 [DB] [EA]2 | %31
w: |||||
w: |||||
w: |||||
w: |||||
 [DB]4 |] %32
w: |
w: |
w: |
w: |
V:2
 x2 | x6 | x6 | x6 | x6 | x2 F2 F2 | x2 F2 F2 | x6 | x6 | x6 | x6 | x6 | x6 | x6 | x6 | x6 | x6 || %17
 x6 | x6 | x6 | x6 | x6 | x6 | x6 | x12 | x6 | x6 | x6 | x6 | x6 | x6 | x4 |] %32
V:3
 [B,,B,]2 | [B,,B,]2 [B,,F,]2 [B,,F,]2 | [B,,B,]2 [B,,B,]2 [B,,B,]2 | [B,,B,]2 [B,,B,]3 [B,,B,] | %4
w: ~|~ ~ ~|~ ~ ~|~ ~ ~|
 [B,,B,]4 [D,B,]2 | [F,C]2 [F,A,]2 [F,A,]2 | [F,A,]2 [F,A,]2 [F,A,]2 | [F,A,]2 [F,B,]2 [F,A,]2 | %8
w: ~ ~|~ ~ ~|~ ~ ~|~ ~ ~|
 [B,,B,]4 [B,,B,]2 | [B,,B,]2 [B,,F,]2 [B,,F,]2 | [B,,B,]2 [B,,B,]2 [B,,B,]2 | %11
w: ~ ~|~ ~ ~|~ ~ ~|
 [B,,B,]2 [B,,B,]3 [B,,B,] | [B,,B,]4 [B,,D]2 | [C,C]2 [C,A,]2 [C,C]2 | [C,C]2 [C,C]2 [C,C]2 | %15
w: ~ ~ ~|~ ~|~ ~ ~|~ ~ ~|
 [C,C] [C,G,]3 [C,B,]2 | [F,A,]6 || [B,,B,]3 [D,B,] [F,B,]2 | B,6 | [E,E]2 [E,E]3 [E,B,] | %20
w: ~ ~ ~|~|Ga- ther the|grain,|ga- ther the|
 [B,,B,]6 | [G,B,]3 [G,B,] [G,B,]2 | [C,B,]2 [C,C]2 [C,G,]2 | [F,A,]2 [F,A,]3 [F,B,] | %24
w: grain;|Thanks for the|sun- shine, the|dew, and the|
 [F,A,]6 [B,,B,]3 [B,,B,] [B,,B,]2 | [B,,B,]2 [B,,B,]2 [B,,B,]2 | [B,,B,]2 [B,,B,]2 [B,,B,]2 | %27
w: rain; Sun- shine is|yield- ing its|har- vest a-|
 [E,B,]4 [E,B,]2 | [=E,G,]2 [E,G,]2 [E,B,]2 | [F,B,]2 [F,B,]2 [F,B,]2 | [F,A,]3 [F,B,] [F,C]2 | %31
w: gain, Then|thrust in the|sick- le and|ga- ther the|
 [B,,B,]4 |] %32
w: grain.|
V:4
 x2 | x6 | x6 | x6 | x6 | x6 | x6 | x6 | x6 | x6 | x6 | x6 | x6 | x6 | x6 | x6 | x6 || x6 | B,6 | %19
 x6 | x6 | x6 | x6 | x6 | x12 | x6 | x6 | x6 | x6 | x6 | x6 | x4 |] %32

